X: 30965
T: Oyster Girl, The
R: jig
M: 6/8
K: Gmajor
d>ed B2 G|A2 F D2 F|G2 B d>cB|B3 A2 ^c|
d>ed B2 G|g2 e c2 e|e2 B d>cA|G3 G2:|
B2 B B>^AB|B2 e B2 _B|A2 A A>B^c|d3- d2 ^c|
d2 d B>AG|g2 e c>de|e>dB d>cA|G3- G2:|

